X:1
T:Home at Last
T:Home at Last
T:William James Kirkpatrick
T:Frances Jane (Fanny) Crosby, 1882
T:Public Domain Courtesy of the Cyber Hymnal™
T:Public Domain Courtesy of the Cyber Hymnal™
C:William James Kirkpatrick
Z:Public Domain
Z:Courtesy of the Cyber Hymnal™
%%score ( 1 2 ) ( 3 4 )
L:1/8
Q:1/4=97
M:3/4
K:F
V:1 treble 
V:2 treble 
V:3 bass 
V:4 bass 
V:1
 [Fc][Fd] | [Fc]3 [EB] [EB][Ec] | [GB]2 [FA]2 [Fc][Fc] | [Ec]3 [EG] [EG][EA] | [CF]4 [FA][FB] | %5
w: 1.~Hark the|song of ho- ly|rap- ture, Hear it|break from yon- der|strand Where our|
w: 2.~O, the|long and sweet re-|un- ion, Where the|bells of time shall|cease; O, the|
w: 3.~Look be-|yond, the skies are|clear- ing; See, the|mist dis- solves a-|way; Soon our|
 [FA]3 [EG] [EG][EA] | [CG]2 [CF]2 [FA][FA] | [EG]3 [DF] [CE][=B,D] | [CE]4 z2 | %9
w: friends for us are|wait- ing, In the|gold- en sum- mer|land;|
w: greet- ing, end- less|greet- ing, On the|ver- nal heights of|peace;|
w: eyes will catch the|dawn- ing Of a|bright, ce- les- tial|day;|
 C[=B,D] [_B,E][CF] [CG]>[CF] | [CF]2 [CE]2 z2 | [CE][CF] [EG][FA] [GB][F=B] | [Ec]4 [Fc][Fd] | %13
w: They have reached the port of|glo- ry,|O’er the Jor- dan they have|passed, And with|
w: Where the hop- ing and des-|pond- ing|Of the wea- ry heart are|past, And we|
w: Soon the sha- dows will be|lift- ed|That a- round us now are|cast, And re-|
 [Fc]3 [EB] [EB][Ec] | [GB]2 [FA]2 [Fc][Fc] | (d3 f) [Fe][Fd] | [Fc]4 [FA][FB] | %17
w: mil- lions they are|shout- ing, Home at|last, * home at|last: And with|
w: en- ter life e-|ter- nal, Home at|last, * home at|last: And we|
w: joic- ing we shall|ga- ther Home at|last, * home at|last: And re-|
 [FA]3 [EG] [EG][EA] | [EG]2 [DF]2 [FB][DG] | ([CF]2 [FA]2) [EG]>[CF] | [CF]4 |] %21
w: mil- lions they are|shout- ing, Home at|last, * home at|last;|
w: en- ter life e-|ter- nal, Home at|last, * home at|last.|
w: joic- ing we shall|ga- ther Home at|last, * home at|last.|
V:2
 x2 | x6 | x6 | x6 | x6 | x6 | x6 | x6 | x6 | C x5 | x6 | x6 | x6 | x6 | x6 | F4 x2 | x6 | x6 | %18
 x6 | x6 | x4 |] %21
V:3
 [F,A,][F,B,] | [F,A,]3 [C,G,] [C,G,][C,C] | [F,C]2 [F,C]2 [F,A,][F,A,] | %3
 [C,B,]3 [C,B,] [C,B,][C,C] | [F,A,]4 [F,C][F,D] | [F,C]3 [C,B,] [C,B,][C,C] | %6
 [F,B,]2 [F,A,]2 [F,C][F,C] | [G,C]3 [G,,G,] [G,,G,][G,,G,] | [C,G,]4 z2 | %9
 [C,E,][C,F,] [C,G,][C,A,] [C,B,]>[C,A,] | [C,A,]2 [C,G,]2 z2 | [G,A,]A, [G,B,][F,C] [E,C][E,G,] | %12
 (G,DCB,) [F,A,][F,B,] | [F,A,]3 [C,G,] [C,G,][C,C] | [F,C]2 [F,C]2 [F,A,][F,A,] | %15
 (B,3 D) [B,,C][B,,B,] | [F,A,]4 [F,C][F,D] | [F,C]3 [C,B,] [C,B,][C,C] | %18
 [D,B,]2 [D,A,]2 [B,,D][B,,B,] | (A,2 C2) [C,B,]>[F,,F,A,] | [F,,F,A,]4 |] %21
V:4
 x2 | x6 | x6 | x6 | x6 | x6 | x6 | x6 | x6 | x6 | x6 | x A, x4 | [C,G,]4 x2 | x6 | x6 | B,,4 x2 | %16
 x6 | x6 | x6 | C,4 x2 | x4 |] %21

